X:82
T:Engelska efter Johan August Nilsson, Munkedal
R: hp 32 reel
N:From the playing of Johan August Nilsson, Bohuslän county
M:2/4
Q:1/8=140
R:polka 32 schottische
K:D
|:D2FA Adef|gfed dcBA|G2BG F2AF|E2A2 GFE2|D2FA Adef|gfed dcBA|gfge
dcBc|d2f2 d2z2:||:Adfd Acec|Adfd Acec|AGBG F2AA|AGBG F2AA|Adfd
Acec|Adfd Acec|ABcd egec|e2d2 d2z2:||

